Papirus/22x22/panel/pomodoro-stop-light.svg

<?xml version="1.0" encoding="UTF-8" standalone="no"?>
<svg xmlns:dc="http://purl.org/dc/elements/1.1/" xmlns:cc="http://creativecommons.org/ns#" xmlns:rdf="http://www.w3.org/1999/02/22-rdf-syntax-ns#" xmlns:svg="http://www.w3.org/2000/svg" xmlns="http://www.w3.org/2000/svg" width="22" height="22" id="svg2" version="1.1">
    <metadata id="metadata7">
        <rdf:RDF>
            <cc:Work rdf:about="">
                <dc:format>
                    image/svg+xml
                </dc:format>
                <dc:type rdf:resource="http://purl.org/dc/dcmitype/StillImage"/>
                <dc:title/>
            </cc:Work>
        </rdf:RDF>
    </metadata>
    <g id="layer1" transform="translate(0,-1030.3622)">
        <path style="opacity:1;fill:#ffffff;fill-opacity:1;stroke:none" d="M 11,2 C 8.8724001,2 6.91554,2.73435 5.375,3.96875 L 3.5625,2.15625 2.15625,3.5625 3.96875,5.375 C 2.73442,6.9155 2,8.8724 2,11 c 0,4.9706 4.0294401,9 9,9 4.97057,0 9,-4.0294 9,-9 C 20,8.8724 19.26559,6.9155 18.03125,5.375 L 19.84375,3.5625 18.4375,2.15625 16.625,3.96875 C 15.08447,2.73435 13.1276,2 11,2 Z m 0,2 c 3.865993,0 7,3.1340068 7,7 0,3.865993 -3.134007,7 -7,7 C 7.1340068,18 4,14.865993 4,11 4,7.1340068 7.1340068,4 11,4 Z m -3,4 0,6 6,0 0,-3 0,-3 z" transform="translate(0,1030.3622)" id="path5689"/>
    </g>
</svg>

<?xml version="1.0" encoding="UTF-8" standalone="no"?>
<svg id="svg2" xmlns:rdf="http://www.w3.org/1999/02/22-rdf-syntax-ns#" xmlns="http://www.w3.org/2000/svg" height="22" width="22" version="1.1" xmlns:cc="http://creativecommons.org/ns#" xmlns:dc="http://purl.org/dc/elements/1.1/">
 <metadata id="metadata7">
  <rdf:RDF>
   <cc:Work rdf:about="">
    <dc:format>image/svg+xml</dc:format>
    <dc:type rdf:resource="http://purl.org/dc/dcmitype/StillImage"/>
    <dc:title/>
   </cc:Work>
  </rdf:RDF>
 </metadata>
 <g id="layer1" transform="translate(0 -1030.4)">
  <path id="path5689" d="m11 2c-2.1276 0-4.0845 0.7344-5.625 1.9688l-1.8125-1.8126-1.4063 1.4063 1.8126 1.8125c-1.2344 1.5405-1.9688 3.4974-1.9688 5.625 0 4.9706 4.0294 9 9 9s9-4.0294 9-9c0-2.1276-0.734-4.0845-1.969-5.625l1.813-1.8125-1.406-1.4063-1.813 1.8126c-1.541-1.2344-3.497-1.9688-5.625-1.9688zm0 2c3.866 0 7 3.134 7 7s-3.134 7-7 7-7-3.134-7-7 3.134-7 7-7zm-3 4v6h6v-3-3z" transform="translate(0 1030.4)" fill="#fff"/>
 </g>
</svg>
